webapp/src/assets/icons/cloudproviders/aws/architecture_services/documentdb.svg

<?xml version="1.0" encoding="UTF-8"?>
<svg width="24px" height="24px" viewBox="0 0 24 24" version="1.1" xmlns="http://www.w3.org/2000/svg" xmlns:xlink="http://www.w3.org/1999/xlink">
    <title>Icon-Architecture/16/Arch_Amazon-DocumentDB_16</title>
    <g id="Icon-Architecture/16/Arch_Amazon-DocumentDB_16" stroke="none" stroke-width="1" fill="none" fill-rule="evenodd">
        <path d="M9.5,5.03225806 C12.247,5.03225806 14,5.94890323 14,6.58064516 C14,7.2123871 12.247,8.12903226 9.5,8.12903226 C6.753,8.12903226 5,7.2123871 5,6.58064516 C5,5.94890323 6.753,5.03225806 9.5,5.03225806 L9.5,5.03225806 Z M9.5,12.7741935 C10.519,12.7741935 11.507,12.6523871 12.359,12.4221935 L12.105,11.4229677 C11.335,11.6325161 10.435,11.7419355 9.5,11.7419355 C6.753,11.7419355 5,10.8252903 5,10.1935484 L5,8.10735484 C6.061,8.79793548 7.813,9.16129032 9.5,9.16129032 C11.187,9.16129032 12.939,8.79793548 14,8.10735484 L14,9.16129032 L15,9.16129032 L15,6.57651613 C14.994,4.90322581 12.164,4 9.5,4 C6.895,4 4.136,4.86606452 4.012,6.47019355 L4,6.47019355 L4,17.6443871 C4,19.1907097 6.552,20 9.073,20 C10.24,20 11.371,19.8276129 12.255,19.5148387 L11.931,18.5372903 C11.147,18.8149677 10.133,18.9677419 9.073,18.9677419 C6.437,18.9677419 5,18.0934194 5,17.6443871 L5,15.8492903 C6.061,16.539871 7.813,16.9032258 9.5,16.9032258 C10.519,16.9032258 11.507,16.7814194 12.359,16.5512258 L12.105,15.552 C11.335,15.7615484 10.435,15.8709677 9.5,15.8709677 C6.753,15.8709677 5,14.9543226 5,14.3225806 L5,11.7202581 C6.061,12.4108387 7.813,12.7741935 9.5,12.7741935 L9.5,12.7741935 Z M19,12.2580645 L18,12.2580645 L18,11.2258065 L18.1,11.2258065 L19,12.1104516 L19,12.2580645 Z M19,18.4516129 L14,18.4516129 L14,11.2258065 L17,11.2258065 L17,12.7741935 C17,13.0590968 17.224,13.2903226 17.5,13.2903226 L19,13.2903226 L19,18.4516129 Z M19.845,11.515871 L18.645,10.336 C18.552,10.244129 18.428,10.1935484 18.3,10.1935484 L13.5,10.1935484 C13.224,10.1935484 13,10.4247742 13,10.7096774 L13,18.9677419 C13,19.2526452 13.224,19.483871 13.5,19.483871 L19.5,19.483871 C19.776,19.483871 20,19.2526452 20,18.9677419 L20,12.2580645 L20,11.8895484 C20,11.748129 19.944,11.6129032 19.845,11.515871 L19.845,11.515871 Z" id="Amazon-DocumentDB_Icon_16_Squid" fill="#C925D1"></path>
    </g>
</svg>

<svg width="24" height="24" xmlns="http://www.w3.org/2000/svg"><path d="M9.5 5.032c2.747 0 4.5.917 4.5 1.549 0 .631-1.753 1.548-4.5 1.548S5 7.212 5 6.581c0-.632 1.753-1.549 4.5-1.549Zm0 7.742c1.019 0 2.007-.122 2.859-.352l-.254-.999c-.77.21-1.67.319-2.605.319-2.747 0-4.5-.917-4.5-1.548V8.107c1.061.69 2.813 1.054 4.5 1.054 1.687 0 3.439-.363 4.5-1.054v1.054h1V6.577C14.994 4.903 12.164 4 9.5 4c-2.605 0-5.364.866-5.488 2.47H4v11.174C4 19.191 6.552 20 9.073 20c1.167 0 2.298-.172 3.182-.485l-.324-.978c-.784.278-1.798.43-2.858.43-2.636 0-4.073-.874-4.073-1.323V15.85c1.061.69 2.813 1.054 4.5 1.054 1.019 0 2.007-.122 2.859-.352l-.254-.999c-.77.21-1.67.319-2.605.319-2.747 0-4.5-.917-4.5-1.548V11.72c1.061.69 2.813 1.054 4.5 1.054Zm9.5-.516h-1v-1.032h.1l.9.884v.148Zm0 6.194h-5v-7.226h3v1.548c0 .285.224.516.5.516H19v5.162Zm.845-6.936-1.2-1.18a.491.491 0 0 0-.345-.142h-4.8c-.276 0-.5.23-.5.516v8.258c0 .285.224.516.5.516h6c.276 0 .5-.231.5-.516V11.89a.523.523 0 0 0-.155-.374Z" fill="#C925D1" fill-rule="evenodd"/></svg>
